tools/download-figma-icons/icons/solid/megaphone.svg

<svg width="25" height="24" viewBox="0 0 25 24" fill="none" xmlns="http://www.w3.org/2000/svg">
<path fill-rule="evenodd" clip-rule="evenodd" d="M16.5523 17.7836L16.7098 5.25861C16.7098 5.01111 16.5823 4.77111 16.3805 4.62861C16.1698 4.48611 15.908 4.46286 15.6748 4.55361L7.38053 7.93611L3.44303 7.89111H3.39728C1.54478 7.89111 0.0305295 9.38361 0.00727955 11.2429L0.000529546 11.3936C-0.0152205 13.0136 1.10978 14.3861 2.63978 14.7386L0.77228 18.8936C0.66728 19.1261 0.68303 19.3886 0.82478 19.6061C0.95978 19.8161 1.19303 19.9511 1.44728 19.9511L4.60478 19.9886H4.62053C4.91303 19.9886 5.18303 19.8161 5.30228 19.5461L7.38053 14.9186L15.503 18.4661C15.6005 18.5036 15.6973 18.5254 15.8023 18.5254C15.9448 18.5254 16.088 18.4886 16.2073 18.4061C16.4173 18.2711 16.5523 18.0386 16.5523 17.7836ZM19.2451 10.8055L23.2621 10.8543C23.6761 10.8595 24.0076 11.1993 24.0023 11.614C23.9971 12.025 23.6626 12.3543 23.2523 12.3543H23.2433L19.2256 12.3055C18.8116 12.3003 18.4801 11.9605 18.4853 11.5458C18.4906 11.1348 18.8251 10.8055 19.2353 10.8055H19.2451ZM18.639 9.28693C18.7328 9.28693 18.8288 9.26968 18.921 9.23218L22.8713 7.63168C23.2545 7.47643 23.439 7.03918 23.2838 6.65443C23.1278 6.27118 22.6898 6.08518 22.3073 6.24118L18.357 7.84168C17.973 7.99693 17.7885 8.43418 17.9438 8.81893C18.0615 9.11068 18.3428 9.28693 18.639 9.28693ZM18.863 13.8694L22.7728 15.5667C23.1523 15.7317 23.327 16.1734 23.162 16.5529C23.039 16.8357 22.763 17.0044 22.4735 17.0044C22.3738 17.0044 22.2725 16.9849 22.175 16.9422L18.2653 15.2449C17.8858 15.0807 17.711 14.6389 17.8768 14.2587C18.0403 13.8784 18.4805 13.7029 18.863 13.8694Z" fill="black"/>
</svg>

<svg width="25" height="24" viewBox="0 0 25 24" fill="none" xmlns="http://www.w3.org/2000/svg"><path fill-rule="evenodd" clip-rule="evenodd" d="m16.552 17.784.158-12.525a.783.783 0 0 0-.33-.63.76.76 0 0 0-.705-.075L7.38 7.936l-3.938-.045h-.046a3.393 3.393 0 0 0-3.39 3.352l-.006.15a3.403 3.403 0 0 0 2.64 3.347L.772 18.894a.735.735 0 0 0 .053.712c.135.21.368.345.622.345l3.158.038h.016a.747.747 0 0 0 .681-.443l2.079-4.627 8.122 3.547a.81.81 0 0 0 .3.06.71.71 0 0 0 .404-.12.743.743 0 0 0 .345-.622Zm2.693-6.978 4.017.048a.75.75 0 0 1-.01 1.5h-.009l-4.017-.048a.75.75 0 0 1 .01-1.5h.01Zm-.606-1.52c.094 0 .19-.016.282-.054l3.95-1.6a.75.75 0 0 0-.564-1.39l-3.95 1.6a.75.75 0 0 0 .282 1.445Zm.224 4.583 3.91 1.698a.75.75 0 1 1-.598 1.375l-3.91-1.697a.748.748 0 0 1-.388-.986.747.747 0 0 1 .986-.39Z" fill="currentColor"/></svg>
